file-document-edit-outline.svg

<svg fill="currentColor" viewBox="0 0 24 24"><path d="M8 12h8v2H8zm2 8H6V4h7v5h5v3.1l2-2V8l-6-6H6a2 2 0 0 0-2 2v16a2 2 0 0 0 2 2h4zm-2-2h4.1l.9-.9V16H8zm12.2-5c.1 0 .3.1.4.2l1.3 1.3c.2.2.2.6 0 .8l-1 1-2.1-2.1 1-1c.1-.1.2-.2.4-.2m0 3.9L14.1 23H12v-2.1l6.1-6.1z"/></svg>

<svg  viewBox="0 0 24 24" fill="currentColor"><path  d="M8,12H16V14H8V12M10,20H6V4H13V9H18V12.1L20,10.1V8L14,2H6A2,2 0 0,0 4,4V20A2,2 0 0,0 6,22H10V20M8,18H12.1L13,17.1V16H8V18M20.2,13C20.3,13 20.5,13.1 20.6,13.2L21.9,14.5C22.1,14.7 22.1,15.1 21.9,15.3L20.9,16.3L18.8,14.2L19.8,13.2C19.9,13.1 20,13 20.2,13M20.2,16.9L14.1,23H12V20.9L18.1,14.8L20.2,16.9Z"/></svg>
